!!!COM: Music21
!!!OTL: Rumba
!!!OMV: pezas_rumbas_rumba_rumba-partitura.musicxml
**kern
*part1
*staff1
*I"Bagpipes
*I'Bag
*clefG^2
*k[]
*M2/4
=1
!LO:TX:a:t=Andante
*MM96
!LO:TX:a:t=[quarter]=96
4r
8eeL
8ggJ
=||
8.cccL
16cccJk
16cccLL
16bb
16aa
16ggJJ
=
4ff
16ddLL
16ee
16ff
16ggJJ
=
8aaL
16ggL
16aaJJ
8bbL
8ggJ
=
4ee
16ccLL
16dd
16ee
16ffJJ
=
8ggL
16ffL
16ggJJ
16aaLL
16gg
16ff
16eeJJ
!!linebreak:original
=
16ddLL
16ee
16dd
16ccJJ
16bLL
16cc
16dd
16eeJJ
!!linebreak:original
=
16ffLL
16gg
16ff
16eeJJ
16ddLL
16cc
16b
16ddJJ
=
4cc
8eeL
8ggJ
=||
8.cccL
16cccJk
16cccLL
16bb
16aa
16ggJJ
=
4ff
16ddLL
16ee
16ff
16ggJJ
=
8aaL
16ggL
16aaJJ
8bbL
8ggJ
=
4ee
16ccLL
16dd
16ee
16ffJJ
!!linebreak:original
=
8ggL
16ffL
16ggJJ
16aaLL
16gg
16ff
16eeJJ
=
16ddLL
16ee
16dd
16ccJJ
16bLL
16cc
16dd
16eeJJ
!!linebreak:original
=
16ffLL
16gg
16ff
16eeJJ
16ddLL
16cc
16b
16ddJJ
=
4cc
8ccL
8ccJ
=
4cc
8eeL
8ggJ
=||
8ggL
16ffL
16ggJJ
16aaLL
16gg
16ff
16eeJJ
=
8ffL
8ddJ
8ffL
8aaJ
=
8aaL
16ggL
16aaJJ
16bbLL
16aa
16gg
16ffJJ
!!pagebreak:original
=
8ggL
8eeJ
8eeL
8ggJ
=
8ggL
16ffL
16ggJJ
16aaLL
16gg
16ff
16eeJJ
=
8ffL
16ddL
16ffJJ
8.bbL
16aaJk
=
8ggL
16eeL
16ggJJ
8ffL
16ddL
16ffJJ
=
4ee
8eeL
8ggJ
=||
8ggL
16ffL
16ggJJ
16aaLL
16gg
16ff
16eeJJ
=
8ffL
8ddJ
8ffL
8aaJ
!!linebreak:original
=
8aaL
16ggL
16aaJJ
16bbLL
16aa
16gg
16ffJJ
!!linebreak:original
=
8ggL
8eeJ
8eeL
8ggJ
=
8ggL
16ffL
16ggJJ
16aaLL
16gg
16ff
16eeJJ
=
8ffL
16ddL
16ffJJ
8.bbL
16aaJk
=
8ggL
16eeL
16ggJJ
8ffL
16ddL
16ffJJ
=||
4ee
8eeL
8eeJ
=
4ee
8eeL
8ggJ
!!linebreak:original
=||
4ee
8eeL
8ggJ
=
8ccc
8r
4r
==
*-
!!!system-decoration: s1,s2
